website/static/img/dice-solid.svg

<svg aria-hidden="true" focusable="false" data-prefix="fas" data-icon="dice" class="svg-inline--fa fa-dice fa-w-20" role="img" xmlns="http://www.w3.org/2000/svg" viewBox="0 0 640 512"><path fill="#45A29E" d="M592 192H473.26c12.69 29.59 7.12 65.2-17 89.32L320 417.58V464c0 26.51 21.49 48 48 48h224c26.51 0 48-21.49 48-48V240c0-26.51-21.49-48-48-48zM480 376c-13.25 0-24-10.75-24-24 0-13.26 10.75-24 24-24s24 10.74 24 24c0 13.25-10.75 24-24 24zm-46.37-186.7L258.7 14.37c-19.16-19.16-50.23-19.16-69.39 0L14.37 189.3c-19.16 19.16-19.16 50.23 0 69.39L189.3 433.63c19.16 19.16 50.23 19.16 69.39 0L433.63 258.7c19.16-19.17 19.16-50.24 0-69.4zM96 248c-13.25 0-24-10.75-24-24 0-13.26 10.75-24 24-24s24 10.74 24 24c0 13.25-10.75 24-24 24zm128 128c-13.25 0-24-10.75-24-24 0-13.26 10.75-24 24-24s24 10.74 24 24c0 13.25-10.75 24-24 24zm0-128c-13.25 0-24-10.75-24-24 0-13.26 10.75-24 24-24s24 10.74 24 24c0 13.25-10.75 24-24 24zm0-128c-13.25 0-24-10.75-24-24 0-13.26 10.75-24 24-24s24 10.74 24 24c0 13.25-10.75 24-24 24zm128 128c-13.25 0-24-10.75-24-24 0-13.26 10.75-24 24-24s24 10.74 24 24c0 13.25-10.75 24-24 24z"></path></svg>

<?xml version="1.0" encoding="utf-8"?>
<!-- Generator: Adobe Illustrator 23.0.3, SVG Export Plug-In . SVG Version: 6.00 Build 0)  -->
<svg version="1.1" id="Layer_1" focusable="false" xmlns="http://www.w3.org/2000/svg" xmlns:xlink="http://www.w3.org/1999/xlink"
	 x="0px" y="0px" viewBox="0 0 640 512" style="enable-background:new 0 0 640 512;" xml:space="preserve">
<style type="text/css">
	.st0{fill:#4872F9;}
</style>
<path class="st0" d="M592,192H473.3c12.7,29.6,7.1,65.2-17,89.3L320,417.6V464c0,26.5,21.5,48,48,48h224c26.5,0,48-21.5,48-48V240
	C640,213.5,618.5,192,592,192z M480,376c-13.2,0-24-10.8-24-24c0-13.3,10.8-24,24-24s24,10.7,24,24C504,365.2,493.2,376,480,376z
	 M433.6,189.3L258.7,14.4c-19.2-19.2-50.2-19.2-69.4,0L14.4,189.3c-19.2,19.2-19.2,50.2,0,69.4l174.9,174.9
	c19.2,19.2,50.2,19.2,69.4,0l174.9-174.9C452.8,239.5,452.8,208.5,433.6,189.3L433.6,189.3z M96,248c-13.2,0-24-10.8-24-24
	c0-13.3,10.8-24,24-24s24,10.7,24,24C120,237.2,109.2,248,96,248z M224,376c-13.2,0-24-10.8-24-24c0-13.3,10.8-24,24-24
	s24,10.7,24,24C248,365.2,237.2,376,224,376z M224,248c-13.2,0-24-10.8-24-24c0-13.3,10.8-24,24-24s24,10.7,24,24
	C248,237.2,237.2,248,224,248z M224,120c-13.2,0-24-10.8-24-24c0-13.3,10.8-24,24-24s24,10.7,24,24C248,109.2,237.2,120,224,120z
	 M352,248c-13.2,0-24-10.8-24-24c0-13.3,10.8-24,24-24s24,10.7,24,24C376,237.2,365.2,248,352,248z"/>
</svg>
